X: 18308
T: Humours Of Tullycrine, The
R: hornpipe
M: 4/4
K: Adorian
|:E|AGAB cBcd|eaag e2dB|c2Ac BAGA|Bdde dBAG|
AGAB cBcd|eaag egdB|c2Ac BAGB|1 ABAG A3:|2 A2AG A2(3Bcd||
|:eaab aged|eaab aged|egga (3gag ed2|dgga gedB|
A2AB cbcd|eaag egdB|c2Ac BAGB|1 ABAG A2(3Bcd:|2 A2AG A3||

